X:256
T:Fishers
R:Hornpipe
B:The Athole Colletion
M:C|
L:1/8
K:D
dc|dAFA GBAG|FAFA GBAG|FDFD GEGE|FDFD E2 dc|dAFA GBAG|
FAFA GBAG|FAdf gedc|d2 d2 d2:||:cd|ecAc ecge|fdAd fdaf|ecAc ecgf|
edcB A3A|BGDG BGdB|AFDF AFdA|BdcB AGFE|D2 D2 D2:|

